X: 15021
T: George Peoples'
R: reel
M: 4/4
K: Ddorian
A,DDE FEDB,|CDEG cedB|cAGE CDEG|AcGE FDEC|
A,DDE FEDB,|CDEC ~A,2CA,|_B,2DB, CDEG|1 AcGE D3C:|2 AcGE D2 (3EFG||
|:Addc dfec|dcAB cAGE|~F2AF EGcd|efed cAGc|
Addc dfec|dcAB cAGg|efec dcAd|cAGE D2 (3EFG:|
|:Addc defg|ad~d2 c'dbd|ad~d2 cdef|gc~c2 AcGc|
Addc dfec|dcAB cAGg|efec dcAd|1 cAGE D2 (3EFG:|2 cAGE D3C||

